img/envelope.svg

<svg width="16" height="12" viewBox="0 0 16 12" fill="none" xmlns="http://www.w3.org/2000/svg">
<mask id="path-1-inside-1" fill="white">
<path d="M14.5 0H1.50001C0.672854 0 0 0.628107 0 1.40026V9.80173C0 10.5739 0.672854 11.202 1.50001 11.202H14.5C15.3271 11.202 16 10.5739 16 9.80173V1.40026C16 0.628107 15.3271 0 14.5 0ZM14.5 0.933493C14.5679 0.933493 14.6325 0.94665 14.6916 0.969628L8 6.38361L1.30833 0.969628C1.36742 0.946681 1.43204 0.933493 1.49998 0.933493H14.5ZM14.5 10.2685H1.50001C1.22414 10.2685 0.999996 10.0593 0.999996 9.80169V1.95587L7.67236 7.35402C7.76661 7.43013 7.8833 7.46798 8 7.46798C8.1167 7.46798 8.23339 7.43016 8.32764 7.35402L15 1.95587V9.80173C15 10.0593 14.7759 10.2685 14.5 10.2685Z"/>
</mask>
<path d="M14.6916 0.969628L15.3206 1.74705L16.661 0.662579L15.0541 0.0376312L14.6916 0.969628ZM8 6.38361L7.37102 7.16103L8 7.66992L8.62898 7.16103L8 6.38361ZM1.30833 0.969628L0.946296 0.0374652L-0.661753 0.662008L0.679352 1.74705L1.30833 0.969628ZM0.999996 1.95587L1.62896 1.17844L-4.17233e-06 -0.139443L-4.17233e-06 1.95587H0.999996ZM7.67236 7.35402L7.04339 8.13145L7.04413 8.13205L7.67236 7.35402ZM8.32764 7.35402L8.95603 8.13192L8.95661 8.13145L8.32764 7.35402ZM15 1.95587H16V-0.139443L14.371 1.17844L15 1.95587ZM15 9.80173L16 9.80186V9.80173H15ZM14.5 -1H1.50001V1H14.5V-1ZM1.50001 -1C0.186501 -1 -1 0.0121189 -1 1.40026H1C1 1.2441 1.15921 1 1.50001 1V-1ZM-1 1.40026V9.80173H1V1.40026H-1ZM-1 9.80173C-1 11.1899 0.186501 12.202 1.50001 12.202V10.202C1.15921 10.202 1 9.95789 1 9.80173H-1ZM1.50001 12.202H14.5V10.202H1.50001V12.202ZM14.5 12.202C15.8135 12.202 17 11.1899 17 9.80173H15C15 9.95789 14.8408 10.202 14.5 10.202V12.202ZM17 9.80173V1.40026H15V9.80173H17ZM17 1.40026C17 0.0121188 15.8135 -1 14.5 -1V1C14.8408 1 15 1.2441 15 1.40026H17ZM14.5 1.93349C14.4378 1.93349 14.3798 1.92132 14.3292 1.90163L15.0541 0.0376312C14.8853 -0.0280163 14.698 -0.0665069 14.5 -0.0665069V1.93349ZM14.0626 0.19221L7.37102 5.6062L8.62898 7.16103L15.3206 1.74705L14.0626 0.19221ZM8.62898 5.60619L1.93732 0.192209L0.679352 1.74705L7.37102 7.16103L8.62898 5.60619ZM1.67037 1.90179C1.62031 1.92123 1.56246 1.93349 1.49998 1.93349V-0.0665069C1.30162 -0.0665069 1.11452 -0.0278706 0.946296 0.0374652L1.67037 1.90179ZM1.49998 1.93349H14.5V-0.0665069H1.49998V1.93349ZM14.5 9.26846H1.50001V11.2685H14.5V9.26846ZM1.50001 9.26846C1.71044 9.26846 2 9.44322 2 9.80169H-4.17233e-06C-4.17233e-06 10.6753 0.737827 11.2685 1.50001 11.2685V9.26846ZM2 9.80169V1.95587H-4.17233e-06V9.80169H2ZM0.371029 2.73331L7.04339 8.13145L8.30132 6.57659L1.62896 1.17844L0.371029 2.73331ZM7.04413 8.13205C7.32756 8.36091 7.66964 8.46798 8 8.46798V6.46798C8.09696 6.46798 8.20565 6.49934 8.30059 6.57599L7.04413 8.13205ZM8 8.46798C8.33019 8.46798 8.6724 8.36104 8.95603 8.13192L7.69926 6.57612C7.79439 6.49927 7.9032 6.46798 8 6.46798V8.46798ZM8.95661 8.13145L15.629 2.73331L14.371 1.17844L7.69868 6.57659L8.95661 8.13145ZM14 1.95587V9.80173H16V1.95587H14ZM14 9.8016C14.0001 9.44327 14.2895 9.26846 14.5 9.26846V11.2685C15.2623 11.2685 15.9999 10.6752 16 9.80186L14 9.8016Z" fill="black" mask="url(#path-1-inside-1)"/>
</svg>

<svg fill="none" xmlns="http://www.w3.org/2000/svg" viewBox="0 0 16 12"><mask id="a" fill="#fff"><path d="M14.5 0h-13C.673 0 0 .628 0 1.4v8.402c0 .772.673 1.4 1.5 1.4h13c.827 0 1.5-.628 1.5-1.4V1.4c0-.772-.673-1.4-1.5-1.4zm0 .933c.068 0 .133.014.192.037L8 6.384 1.308.97A.529.529 0 011.5.933h13zm0 9.335h-13c-.276 0-.5-.209-.5-.466V1.956l6.672 5.398A.52.52 0 008 7.468a.52.52 0 00.328-.114L15 1.956v7.846c0 .257-.224.466-.5.466z"/></mask><path d="M14.692.97l.672.83L16.796.641 15.08-.026l-.387.996zM8 6.384l-.672.83.672.544.672-.544L8 6.384zM1.308.97L.921-.027-.797.641.636 1.8 1.308.97zM1 1.956l.672-.831-1.74-1.409v2.24H1zm6.672 5.398L7 8.184v.002l.672-.832zm.656 0l.671.831-.671-.831zM15 1.956h1.069v-2.24l-1.741 1.409.672.83zm0 7.846h1.069H15zm-.5-10.87h-13v2.137h13V-1.07zm-13 0C.153-1.069-1.069-.03-1.069 1.4H1.07c0-.114.124-.331.431-.331V-1.07zM-1.069 1.4v8.402H1.07V1.4H-1.07zm0 8.402c0 1.43 1.222 2.469 2.569 2.469v-2.138c-.307 0-.431-.217-.431-.331H-1.07zM1.5 12.27h13v-2.138h-13v2.138zm13 0c1.347 0 2.569-1.039 2.569-2.47H14.93c0 .115-.124.332-.431.332v2.138zm2.569-2.47v-8.4H14.93v8.4h2.138zm0-8.4c0-1.431-1.222-2.47-2.569-2.47V1.07c.307 0 .431.217.431.331h2.138zm-2.569.601a.541.541 0 01-.196-.036l.775-1.992a1.596 1.596 0 00-.579-.11v2.138zM14.02.14L7.327 5.553l1.344 1.661L15.364 1.8 14.019.14zM8.671 5.553L1.981.139.636 1.8l6.692 5.413 1.344-1.661zM1.695 1.966a.54.54 0 01-.195.036V-.135c-.207 0-.403.04-.579.108l.774 1.993zm-.195.036h13V-.135h-13v2.137zm13 7.198h-13v2.137h13V9.2zm-13 0c.244 0 .569.2.569.602H-.07c0 .916.773 1.535 1.569 1.535V9.2zm.569.602V1.956H-.07v7.846H2.07zM.328 2.787L7 8.185l1.345-1.662-6.673-5.398L.328 2.787zM7 8.186c.296.239.654.35.999.35V6.4c.112 0 .236.036.344.123L7 8.186zm.999.35a1.59 1.59 0 001-.35L7.655 6.522A.548.548 0 018 6.399v2.138zm1-.351l6.672-5.398-1.344-1.662-6.673 5.398L9 8.185zm4.931-6.23v7.847h2.138V1.956H13.93zm0 7.847c0-.401.325-.602.569-.602v2.137c.796 0 1.569-.62 1.569-1.535H13.93z" fill="#000" mask="url(#a)"/></svg>
